picto/defibrillator.svg

<svg class="color-immutable" width="24" height="24" viewBox="0 0 24 24" fill="none" xmlns="http://www.w3.org/2000/svg"><path d="M0 22.5V1.5C0 0.675 0.675 0 1.5 0H22.5C23.325 0 24 0.675 24 1.5V22.5C24 23.325 23.325 24 22.5 24H1.5C0.675 24 0 23.325 0 22.5Z" fill="#237F52"/><path d="M20.999 5.064H18.935V3H16.785V5.064H14.722V7.214H16.785V9.277H18.935V7.214H20.999V5.064Z" fill="white"/><path d="M12.979 8.633C10.557 8.41 9.72801 10.53 9.72801 10.53C9.72801 10.53 8.90001 8.41 6.47701 8.634C4.05501 8.857 2.56801 10.965 3.11401 13.558C3.28901 14.389 4.02901 15.856 5.22201 17.239C6.69801 18.952 8.75801 20.56 9.72801 21C10.698 20.559 12.758 18.952 14.234 17.239C15.426 15.856 16.167 14.389 16.342 13.558C16.888 10.964 15.402 8.857 12.979 8.633ZM8.33101 18.363L9.60101 15.247H7.72601L11.306 11.254L9.82401 14.4H11.73L8.33101 18.363Z" fill="white"/></svg>

<svg class="color-immutable" width="24" height="24" viewBox="0 0 24 24" fill="none" xmlns="http://www.w3.org/2000/svg"><g clip-path="url(#a)"><path d="M0 22.5v-21C0 .675.675 0 1.5 0h21c.825 0 1.5.675 1.5 1.5v21c0 .825-.675 1.5-1.5 1.5h-21C.675 24 0 23.325 0 22.5Z" fill="#237F52"/><path d="M20.999 5.064h-2.064V3h-2.15v2.064h-2.063v2.15h2.063v2.063h2.15V7.214h2.064v-2.15ZM12.979 8.633c-2.422-.223-3.251 1.897-3.251 1.897S8.9 8.41 6.477 8.634c-2.422.223-3.909 2.331-3.363 4.924.175.831.915 2.298 2.108 3.681C6.698 18.952 8.758 20.56 9.728 21c.97-.441 3.03-2.048 4.506-3.761 1.192-1.383 1.933-2.85 2.108-3.681.546-2.594-.94-4.701-3.363-4.925Zm-4.648 9.73 1.27-3.116H7.726l3.58-3.993L9.824 14.4h1.906l-3.399 3.963Z" fill="#fff"/></g><defs><clipPath id="a"><path fill="#fff" d="M0 0h24v24H0z"/></clipPath></defs></svg>
